:script BootTidal.hs

d1 $ s "bd ab pluck ab pluck pluck"

do
  asap $ connectionMax 2 # speedSequenser 4
  d5 $ grid "1 0 0 0"
  d1 $ s "bd!2 cp hh27:4*2" # connectionN 1

do
  asap $ connectionMax 3 # speedSequenser 4
  d5 $ grid "1 0!15"
  d1 $ s "bd(3,8)" # connectionN 1
  d2 $ s "hh(6,8)" # connectionN 2
  d3 $ every 3 ( density 8 ) $ density 2 $ n "<[d4,e2,g2] [d4,e4,g2]?>"
     # s "superfork"  # connectionN 3

hush
