
:{

let
  diesIrae =
    note
      . cat
      $ fmap snd
      [
        ( 1, "f4 e4 f4 d4 e4 c4 d4 d4_3")
      , ( 2, "f4 f4 g4 f4 e4 d4 c4 e4 f4 e4 d4_3")
      , ( 3, "a3 c4 d4 d4 c4 e4 f4 e4 d4_3")
      , ( 0, "~_4")
      ]

:}

:{

let
  test =
    do
      hush
      d1 . fast 1.5
         $ diesIrae
         # sound "superpiano"

:}

